X: 22
T: Lousia of Lombardy
%C: Mr. Gray
%R: reel
B: Mr. Gray "24 Country Dances for the Year 1805" p.11 #2
S: http://folkopedia.efdss.org/images/9/92/ThompsGray_24_1805.PDF  2013-12-2
Z: 2013 John Chambers <jc:trillian.mit.edu>
M: C
L: 1/8
K: A
|:\
(aga)e (dc)(BA) | (FB)(BA) (BG)B2 |\
agae ^dfba | gb^df e2e2 :|
|:\
fdbd ecac | dcBA GBed |\
cefg aecA | BdBG A2A2 :|
% - - - - - - - - - - - - - - - - - - - - - - - - -
%%begintext align
%% Cast of 2d Cu: up again, down the mid:
%% up again, turn corners & lead outsides.
%%endtext

%%sep 1 1 500
%%sep 1 1 500
